X:84
M:2/4
L:1/8
Q:1/4=140
K:G
e2f2|g4|d2 cB|c2 BA|BdBG|AFED|G2 DG|A2 Dc|BGAF|G2G,2:|

